dist/img/icons/skype.svg

<svg width="24" height="24" viewBox="0 0 24 24" fill="none" xmlns="http://www.w3.org/2000/svg">
<path d="M20 4C22.76 6.72 23.8 10.52 23.1467 14.0667C23.6933 15.0267 24 16.1467 24 17.3333C24 19.1014 23.2976 20.7971 22.0474 22.0474C20.7971 23.2976 19.1014 24 17.3333 24C16.1467 24 15.0267 23.6933 14.0667 23.1467C10.52 23.8 6.72 22.76 4 20C1.24 17.28 0.2 13.48 0.853333 9.93333C0.306667 8.97333 0 7.85333 0 6.66667C0 4.89856 0.702379 3.20286 1.95262 1.95262C3.20286 0.702379 4.89856 0 6.66667 0C7.85333 0 8.97333 0.306667 9.93333 0.853333C13.48 0.2 17.28 1.24 20 4ZM12.0533 18.88C15.88 18.88 17.7867 17.04 17.7867 14.56C17.7867 12.9733 17.04 11.28 14.1467 10.6267L11.4933 10.04C10.48 9.81333 9.33333 9.50667 9.33333 8.56C9.33333 7.6 10.1333 6.93333 11.6 6.93333C14.5733 6.93333 14.2933 8.97333 15.7733 8.97333C16.5467 8.97333 17.2133 8.52 17.2133 7.73333C17.2133 5.90667 14.2933 4.53333 11.8133 4.53333C9.13333 4.53333 6.26667 5.68 6.26667 8.72C6.26667 10.1867 6.78667 11.7467 9.66667 12.4667L13.2533 13.3733C14.3333 13.64 14.6 14.24 14.6 14.8C14.6 15.7067 13.6933 16.6 12.0533 16.6C8.84 16.6 9.28 14.1333 7.56 14.1333C6.78667 14.1333 6.22667 14.6667 6.22667 15.4267C6.22667 16.9067 8 18.88 12.0533 18.88Z" fill="white"/>
</svg>

<svg width="24" height="24" fill="none" xmlns="http://www.w3.org/2000/svg"><path d="M20 4c2.76 2.72 3.8 6.52 3.147 10.067.546.96.853 2.08.853 3.266A6.667 6.667 0 0117.333 24a6.59 6.59 0 01-3.266-.853C10.52 23.8 6.72 22.76 4 20 1.24 17.28.2 13.48.853 9.933A6.59 6.59 0 010 6.667 6.667 6.667 0 016.667 0a6.59 6.59 0 013.266.853C13.48.2 17.28 1.24 20 4zm-7.947 14.88c3.827 0 5.734-1.84 5.734-4.32 0-1.587-.747-3.28-3.64-3.933l-2.654-.587c-1.013-.227-2.16-.533-2.16-1.48 0-.96.8-1.627 2.267-1.627 2.973 0 2.693 2.04 4.173 2.04.774 0 1.44-.453 1.44-1.24 0-1.826-2.92-3.2-5.4-3.2-2.68 0-5.546 1.147-5.546 4.187 0 1.467.52 3.027 3.4 3.747l3.586.906c1.08.267 1.347.867 1.347 1.427 0 .907-.907 1.8-2.547 1.8-3.213 0-2.773-2.467-4.493-2.467-.773 0-1.333.534-1.333 1.294 0 1.48 1.773 3.453 5.826 3.453z" fill="#fff"/></svg>
